!!!COM: Paul Hindemith
!!!OTL: [T631_Hin-w20p40m296-303]
**kern	**dynam	**kern	**dynam	**kern	**dynam	**kern	**dynam	**kern	**dynam
*grp:A	*grp:A	*grp:A	*grp:A	*grp:B	*grp:B	*grp:B	*grp:B	*grp:A	*grp:A
*part5	*part5	*part4	*part4	*part3	*part3	*part2	*part2	*part1	*part1
*staff5	*	*staff4	*	*staff3	*	*staff2	*	*staff1	*
*I"Violoncello	*	*I"Viola	*	*I"Violin II	*	*I"Violin I	*	*I"Clarinet in Eb	*
*I'Vc.	*	*I'Vla.	*	*I'Vln. II	*	*I'Vln. I	*	*I'Eb Cl.	*
!!pagebreak:original
*clefF4	*	*clefC3	*	*clefG2	*	*clefG2	*	*clefG2	*
*	*	*	*	*	*	*	*	*ITrd-2c-3	*
*k[]	*	*k[]	*	*k[]	*	*k[]	*	*k[b-e-a-]	*
*	*	*	*	*	*	*	*	*	*
*M3/4	*	*M3/4	*	*M3/4	*	*M3/4	*	*M3/4	*
=1	=1	=1	=1	=1	=1	=1	=1	=1	=1
!	!	!	!	!	!	!	!	!LO:TX:t=[[half-dot]=80]	!
!	!	!	!	!	!LO:DY:t=%s cresc.	!	!LO:DY:t=%s cresc.	!LO:TX:a:B:t=Presto	!
!	!	!	!	!	!LO:DY:ed=brack	!	!LO:DY:ed=brack	!LO:TX:t=P:problem:Hanging slur not implemwnted yet	!LO:DY:ed=brack
8ryy	4ryy	8ryy	4ryy	4f#X	mf	4ff#X	mf	4ryy	4ryy
8ryy	.	8ryy	.	.	.	.	.	.	.
8ryy	.	8ryy	.	4r	.	4f#X 4cc#X 4aa	f	4ryy	.
8ryy	.	8ryy	.	.	.	.	.	.	.
8ryy	.	8ryy	.	4e-X 4b-X 4gg-X	f	4r	.	8ryy	4ryy
8ryy	.	8ryy	.	.	.	.	.	8ryy	.
=2	=2	=2	=2	=2	=2	=2	=2	=2	=2
8ryy	.	8ryy	.	4r	.	4f#X 4dd#X 4bb	.	2ryy	.
8ryy	.	8ryy	.	.	.	.	.	.	.
8ryy	.	8ryy	.	8d-X/L 8b-X/ 8gg-X/	.	4r	.	.	.
8ryy	.	8ryy	.	8d-J 8b- 8gg-	.	.	.	.	.
8ryy	.	8ryy	.	4r	.	4fn 4ccn 4aa-X	.	8ryy	.
8ryy	.	8ryy	.	.	.	.	.	8ryy	.
=3	=3	=3	=3	=3	=3	=3	=3	=3	=3
4ryy	.	4ryy	.	4f 4dd-X	.	4r	.	2ryy	.
8ryy	.	8ryy	.	4r	.	4g#X 4cc#X 4ee	.	.	.
8ryy	.	8ryy	.	.	.	.	.	.	.
8ryy	.	8ryy	.	4f#X 4cc#X 4aan	.	4r	.	8ryy	.
8ryy	.	8ryy	.	.	.	.	.	8ryy	.
=4	=4	=4	=4	=4	=4	=4	=4	=4	=4
8ryy	.	8ryy	.	4r	.	4e-X 4b-X 4gg-X	.	8ryy	.
8ryy	.	8ryy	.	.	.	.	.	8ryy	.
8ryy	.	8ryy	.	4f#X 4dd#X 4bb	.	4r	.	8ryy	.
8ryy	.	8ryy	.	.	.	.	.	8ryy	.
8ryy	.	8ryy	.	4r	.	8d-X/L 8b-X/ 8gg-X/	.	8ryy	.
8ryy	.	8ryy	.	.	.	8d-J 8b- 8gg-	.	8ryy	.
!!linebreak:original
=5	=5	=5	=5	=5	=5	=5	=5	=5	=5
4ryy	.	4ryy	.	4fn 4ccn 4aa-X	.	4r	.	4ryy	.
8ryy	.	8ryy	.	4r	.	4f 4dd-X	.	8ryy	.
8ryy	.	8ryy	.	.	.	.	.	8ryy	.
8ryy	.	8ryy	.	4g#X 4cc#X 4een	.	4r	.	4ryy	.
8ryy	.	8ryy	.	.	.	.	.	.	.
=6	=6	=6	=6	=6	=6	=6	=6	=6	=6
8ryy	.	8ryy	.	4r	.	4f#X 4cc#X 4aan	.	4ryy	.
8ryy	.	8ryy	.	.	.	.	.	.	.
8ryy	.	8ryy	.	4e-X 4b-X 4gg-X	.	4r	.	8ryy	.
8ryy	.	8ryy	.	.	.	.	.	8ryy	.
8ryy	.	8ryy	.	4r	.	4f# 4dd#X 4bb	.	4ryy	.
8ryy	.	8ryy	.	.	.	.	.	.	.
=7	=7	=7	=7	=7	=7	=7	=7	=7	=7
4ryy	.	4ryy	.	8d-XL 8b-X 8gg-X	.	4r	.	4ryy	.
.	.	.	.	8d-J 8b- 8gg-	.	.	.	.	.
8ryy	.	8ryy	.	4r	.	4fn 4ccn 4aa-X	.	8ryy	.
8ryy	.	8ryy	.	.	.	.	.	8ryy	.
8ryy	.	8ryy	.	4f 4dd-X	.	4r	.	8ryy	.
8ryy	.	8ryy	.	.	.	.	.	8ryy	.
=8	=8	=8	=8	=8	=8	=8	=8	=8	=8
8ryy	.	8ryy	.	4r	.	4g#X 4cc#X 4ee	.	8ryy	.
8ryy	.	8ryy	.	.	.	.	.	8ryy	.
8ryy	.	8ryy	.	4f#X 4cc#X 4aa	.	4r	.	8ryy	.
8ryy	.	8ryy	.	.	.	.	.	8ryy	.
8ryy	.	8ryy	.	4r	.	4e-X 4b-X 4gg-X	.	4ryy	.
8ryy	.	8ryy	.	.	.	.	.	.	.
=	=	=	=	=	=	=	=	=	=
*-	*-	*-	*-	*-	*-	*-	*-	*-	*-
!!!system-decoration: s1[(s2,s3,s4,s5)]
